images/item-team-img4.svg

<svg width="40" height="40" viewBox="0 0 40 40" fill="none" xmlns="http://www.w3.org/2000/svg">
<g id="trader 1">
<g id="OUTLINE">
<path id="Vector" d="M16.25 11.875H18.125V13.125H16.25V11.875Z" fill="#1E8E31"/>
<path id="Vector_2" d="M21.875 11.875H23.75V13.125H21.875V11.875Z" fill="#1E8E31"/>
<path id="Vector_3" d="M20.0321 16.0851L20.4288 16.2173L20.824 15.0314L20.4274 14.8991C20.3386 14.8696 20.2576 14.8204 20.1903 14.7553C20.1231 14.6902 20.0713 14.6109 20.0388 14.5231C20.0063 14.4353 19.994 14.3414 20.0027 14.2482C20.0114 14.155 20.0409 14.0649 20.0891 13.9847L21.1623 12.1959L20.0905 11.5527L19.0172 13.3415C18.8728 13.5823 18.7842 13.8524 18.7581 14.132C18.732 14.4116 18.769 14.6934 18.8665 14.9568C18.9639 15.2201 19.1192 15.4582 19.3209 15.6535C19.5227 15.8488 19.7657 15.9963 20.0321 16.0851Z" fill="#1E8E31"/>
<path id="Vector_4" d="M17.9209 18.7379C18.5364 19.1498 19.2603 19.3697 20.001 19.3697C20.7416 19.3697 21.4656 19.1498 22.0811 18.7379L22.2227 18.6436L21.5293 17.6035L21.3877 17.6979C20.9774 17.9725 20.4947 18.1191 20.001 18.1191C19.5072 18.1191 19.0246 17.9725 18.6142 17.6979L18.4727 17.6035L17.7793 18.6436L17.9209 18.7379Z" fill="#1E8E31"/>
<path id="Vector_5" d="M9.99609 38.6719L10.6209 33.6733L11.8609 33.8283L11.2361 38.8269L9.99609 38.6719Z" fill="#1E8E31"/>
<path id="Vector_6" d="M36.8757 26.2494H33.7507V24.3744C33.7502 23.8773 33.5525 23.4007 33.2009 23.0492C32.8494 22.6977 32.3729 22.5 31.8757 22.4994H29.3757C28.8786 22.5 28.4021 22.6977 28.0506 23.0492C27.699 23.4007 27.5013 23.8773 27.5007 24.3744V24.6962L26.0297 24.2365C25.6981 24.1339 25.4018 23.941 25.1739 23.6793C24.9459 23.4176 24.7955 23.0975 24.7395 22.7551L24.3752 20.5696C25.0794 19.7967 25.6141 18.885 25.945 17.8932L26.7812 15.3845C27.1323 15.1004 27.3989 14.7255 27.552 14.3006C27.7051 13.8757 27.7389 13.4169 27.6496 12.9742L28.6003 11.0729C28.6737 10.9259 28.7334 10.7725 28.7786 10.6146L29.5693 7.84724C29.7253 7.30583 29.7046 6.72878 29.5102 6.19993C29.3158 5.67109 28.9578 5.21802 28.4883 4.90656L28.1856 4.70492C28.031 4.60197 27.8983 4.46929 27.7954 4.3146L27.374 3.68258C27.1317 3.31829 26.8031 3.0196 26.4174 2.81316C26.0316 2.60672 25.6008 2.49893 25.1633 2.49941H23.178C22.8737 2.49878 22.5777 2.40008 22.3339 2.21797L22.1526 2.08201C21.5269 1.6095 20.7814 1.32173 20.0006 1.25133C19.2197 1.18092 18.4347 1.3307 17.7347 1.68368L16.4003 2.35087C16.2048 2.44831 15.9895 2.49915 15.7711 2.49941H14.428C13.8534 2.50061 13.2944 2.68694 12.8339 3.0308L11.9551 3.6899C11.5362 4.00312 11.2194 4.43321 11.0444 4.92607C10.8694 5.41893 10.8441 5.95254 10.9716 6.45976L11.0514 6.77897C11.0988 6.96917 11.1059 7.16715 11.0725 7.36028C11.0391 7.55341 10.9657 7.73745 10.8571 7.90064C10.5653 8.33674 10.4095 8.84967 10.4095 9.37441C10.4095 9.89916 10.5653 10.4121 10.8571 10.8482L11.2855 11.4907C11.3179 11.5393 11.3472 11.5899 11.3733 11.6421C11.3856 11.6666 11.3995 11.6903 11.4149 11.7131L12.3345 13.0707C12.2655 13.5002 12.311 13.9404 12.4665 14.3466C12.622 14.7529 12.8821 15.1109 13.2203 15.3845L14.0565 17.8931C14.3874 18.8849 14.9221 19.7966 15.6263 20.5696L15.262 22.7551C15.206 23.0975 15.0556 23.4176 14.8276 23.6793C14.5997 23.941 14.3034 24.1339 13.9718 24.2365L8.89167 25.824C7.73837 26.1862 6.70063 26.8454 5.88258 27.7355C5.06453 28.6255 4.49495 29.715 4.23098 30.8946L2.51562 38.6138L3.73587 38.885L5.45123 31.1658C5.66719 30.2006 6.13322 29.3092 6.80253 28.581C7.47184 27.8528 8.3209 27.3135 9.26451 27.0171L11.207 26.4101L15.219 29.849C15.3323 29.946 15.4766 29.9994 15.6258 29.9994C15.7749 29.9994 15.9192 29.946 16.0325 29.849L17.6828 28.4344C17.7752 28.6625 17.9007 28.8756 18.0553 29.0671L16.2615 38.6342L17.49 38.8646L19.1784 29.8598C19.7847 30.0715 20.4493 30.0415 21.034 29.7761C21.6188 29.5107 22.0789 29.0302 22.3187 28.4344L22.5007 28.5905V36.8744C22.5013 37.3715 22.699 37.8481 23.0506 38.1996C23.4021 38.5511 23.8786 38.7488 24.3757 38.7494H36.8757C37.3729 38.7488 37.8494 38.5511 38.2009 38.1996C38.5525 37.8481 38.7502 37.3715 38.7507 36.8744V28.1244C38.7502 27.6273 38.5525 27.1507 38.2009 26.7992C37.8494 26.4477 37.3729 26.25 36.8757 26.2494ZM37.5007 28.1244V29.9994H23.7507V28.1244C23.7509 27.9587 23.8168 27.7998 23.934 27.6827C24.0512 27.5655 24.21 27.4996 24.3757 27.4994H36.8757C37.0415 27.4996 37.2003 27.5655 37.3175 27.6827C37.4347 27.7998 37.5006 27.9587 37.5007 28.1244ZM29.3757 23.7494H31.8757C32.0415 23.7496 32.2003 23.8155 32.3175 23.9327C32.4346 24.0498 32.5006 24.2087 32.5007 24.3744V26.2494H28.7507V24.3744C28.7509 24.2087 28.8168 24.0498 28.934 23.9327C29.0512 23.8155 29.21 23.7496 29.3757 23.7494ZM25.6568 25.4296L27.5007 26.0058V26.2494H24.3757C24.0503 26.2496 23.7305 26.3345 23.4478 26.4958C23.165 26.657 22.9291 26.8891 22.7633 27.1691L21.4758 26.0655C22.2186 25.8808 22.9198 25.5575 23.5427 25.1126L24.2978 24.5732C24.6683 24.9723 25.1369 25.2676 25.6568 25.4296ZM16.495 22.9606L16.7281 21.5622C17.1901 21.9026 17.6898 22.1888 18.2173 22.415L19.7545 23.0739C19.8323 23.1072 19.9161 23.1244 20.0007 23.1244C20.0854 23.1244 20.1691 23.1072 20.2469 23.0739L21.7842 22.415C22.3117 22.1888 22.8114 21.9026 23.2734 21.5622L23.5065 22.9606C23.5377 23.1446 23.5851 23.3254 23.6482 23.501L22.8161 24.0954C21.9946 24.6821 21.0103 24.9975 20.0007 24.9975C18.9912 24.9975 18.0069 24.6821 17.1854 24.0954L16.3533 23.501C16.4164 23.3254 16.4638 23.1446 16.495 22.9606ZM12.4713 11.0439C12.4272 10.9592 12.3786 10.8769 12.3256 10.7974L11.8972 10.1548C11.7426 9.92389 11.6601 9.65228 11.6602 9.37441C11.6602 9.09654 11.7427 8.82493 11.8972 8.594C12.1023 8.28584 12.2408 7.93831 12.3039 7.5736C12.3671 7.20889 12.3535 6.83502 12.2641 6.47585L12.1843 6.15664C12.1168 5.88806 12.1302 5.60551 12.2228 5.34453C12.3155 5.08355 12.4833 4.85581 12.7051 4.68997L13.5839 4.03079C13.8278 3.84872 14.1237 3.75005 14.428 3.74941H15.7711C16.1835 3.74893 16.5902 3.65291 16.9593 3.46888L18.2937 2.80169C18.7863 2.55328 19.3387 2.44787 19.8882 2.49743C20.4378 2.54699 20.9624 2.74952 21.4026 3.08207L21.5839 3.21795C22.0443 3.56186 22.6033 3.74823 23.178 3.74941H25.1633C25.395 3.74917 25.6231 3.80625 25.8274 3.91556C26.0316 4.02488 26.2056 4.18304 26.3339 4.37594L26.7553 5.00796C26.9496 5.30007 27.2001 5.5506 27.4922 5.74496L27.7949 5.94668C28.0436 6.1116 28.2331 6.35151 28.3361 6.63155C28.439 6.91158 28.45 7.21715 28.3673 7.50384L27.5767 10.271C27.5528 10.3547 27.5212 10.4359 27.4823 10.5138L26.9129 11.6526L26.797 11.5368L26.2187 9.80173C26.1772 9.67729 26.0976 9.56906 25.9912 9.49237C25.8848 9.41568 25.7569 9.37441 25.6257 9.37441C25.0122 9.37641 24.4123 9.1935 23.9043 8.84953C23.3962 8.50555 23.0036 8.01648 22.7776 7.44608L22.456 6.64233C22.4215 6.55598 22.3681 6.47842 22.2998 6.41532C22.2315 6.35221 22.15 6.30515 22.0611 6.27756C21.9723 6.24998 21.8785 6.24256 21.7864 6.25585C21.6944 6.26914 21.6065 6.30281 21.5291 6.35439L20.5987 6.97459C20.0857 7.31734 19.4824 7.5 18.8653 7.49941H18.5395C17.7465 7.49945 16.9685 7.71495 16.2886 8.12289L15.2437 8.74979C14.3483 9.28729 13.6746 10.1272 13.3441 11.1178L13.2045 11.5368L13.0273 11.714C13.0068 11.7344 12.9875 11.7557 12.9678 11.7768L12.4713 11.0439ZM14.3437 14.8017C14.2997 14.6699 14.2131 14.5565 14.0974 14.4794C13.9469 14.3791 13.8206 14.2466 13.7275 14.0916C13.6344 13.9365 13.5769 13.7627 13.559 13.5827C13.5412 13.4028 13.5635 13.2211 13.6244 13.0508C13.6853 12.8805 13.7832 12.7258 13.9111 12.5979L14.1926 12.3164C14.2613 12.2478 14.313 12.1641 14.3437 12.072L14.53 11.5131C14.7661 10.8055 15.2473 10.2056 15.8868 9.82165L16.9317 9.19474C17.4174 8.90338 17.9731 8.74946 18.5395 8.74941H18.8653C19.7292 8.75027 20.5738 8.49453 21.2921 8.01463L21.5815 7.82168L21.617 7.91033C21.9061 8.64056 22.39 9.27749 23.016 9.75182C23.642 10.2262 24.3861 10.5197 25.1673 10.6005L25.6578 12.0721C25.6885 12.1641 25.7402 12.2478 25.8089 12.3164L26.0904 12.5979C26.2183 12.7258 26.3162 12.8805 26.3771 13.0508C26.438 13.2211 26.4603 13.4028 26.4425 13.5827C26.4247 13.7627 26.3671 13.9365 26.274 14.0916C26.1809 14.2466 26.0546 14.3791 25.9041 14.4794C25.7884 14.5565 25.7018 14.6699 25.6578 14.8017L24.7591 17.4979C24.4797 18.3351 24.0264 19.1036 23.4288 19.7531C22.8312 20.4025 22.1029 20.9181 21.2918 21.266L20.0007 21.8194L18.7097 21.266C17.8986 20.9181 17.1703 20.4025 16.5727 19.753C15.9751 19.1036 15.5217 18.335 15.2424 17.4978L14.3437 14.8017ZM15.6257 28.5512L12.6146 25.9702L14.3447 25.4296C14.8647 25.2676 15.3332 24.9723 15.7037 24.5732L16.4588 25.1126C17.0817 25.5575 17.7829 25.8808 18.5257 26.0655L15.6257 28.5512ZM20.0007 28.7494C19.6727 28.749 19.358 28.6197 19.1243 28.3894C18.8907 28.1591 18.7569 27.8462 18.7517 27.5182L20.0007 26.4476L21.2498 27.5183C21.2446 27.8463 21.1108 28.1591 20.8772 28.3894C20.6435 28.6197 20.3288 28.749 20.0007 28.7494ZM36.8757 37.4994H24.3757C24.21 37.4992 24.0512 37.4333 23.934 37.3161C23.8168 37.199 23.7509 37.0401 23.7507 36.8744V31.2494H37.5007V36.8744C37.5006 37.0401 37.4347 37.199 37.3175 37.3161C37.2003 37.4333 37.0415 37.4992 36.8757 37.4994Z" fill="#1E8E31"/>
</g>
</g>
</svg>

<svg xmlns="http://www.w3.org/2000/svg" width="40" height="40" fill="none"><g fill="#1E8E31"><path d="M16.25 11.875h1.875v1.25H16.25v-1.25ZM21.875 11.875h1.875v1.25h-1.875v-1.25ZM20.032 16.085l.397.132.395-1.186-.397-.132a.624.624 0 0 1-.338-.914l1.073-1.79-1.072-.642-1.073 1.788a1.876 1.876 0 0 0 1.015 2.744ZM17.92 18.738a3.74 3.74 0 0 0 4.161 0l.142-.094-.694-1.04-.141.094a2.493 2.493 0 0 1-2.774 0l-.141-.095-.694 1.04.142.095ZM9.996 38.672l.625-4.999 1.24.155-.625 4.999-1.24-.155Z"/><path d="M36.876 26.25H33.75v-1.876a1.876 1.876 0 0 0-1.875-1.875h-2.5a1.877 1.877 0 0 0-1.875 1.875v.322l-1.471-.46a1.866 1.866 0 0 1-1.29-1.48l-.365-2.186a7.497 7.497 0 0 0 1.57-2.677l.836-2.509a2.473 2.473 0 0 0 .869-2.41l.95-1.901c.074-.147.133-.3.179-.458l.79-2.768a2.649 2.649 0 0 0-1.08-2.94l-.303-.202a1.402 1.402 0 0 1-.39-.39l-.422-.632a2.652 2.652 0 0 0-2.21-1.184h-1.986c-.304 0-.6-.099-.844-.281l-.181-.136a4.196 4.196 0 0 0-4.418-.398L16.4 2.35c-.195.097-.41.148-.629.148h-1.343a2.674 2.674 0 0 0-1.594.532l-.879.659a2.651 2.651 0 0 0-.983 2.77l.08.319a1.41 1.41 0 0 1-.195 1.122 2.65 2.65 0 0 0 0 2.947l.429.643c.032.048.061.099.087.151a.64.64 0 0 0 .042.071l.92 1.358a2.472 2.472 0 0 0 .885 2.313l.836 2.51c.331.99.866 1.903 1.57 2.676l-.364 2.185a1.865 1.865 0 0 1-1.29 1.482l-5.08 1.587a6.891 6.891 0 0 0-4.661 5.07l-1.715 7.72 1.22.271 1.715-7.72a5.64 5.64 0 0 1 3.814-4.148l1.942-.607 4.012 3.439a.626.626 0 0 0 .813 0l1.65-1.415c.093.229.219.442.373.633l-1.793 9.567 1.228.23 1.688-9.004a2.498 2.498 0 0 0 3.14-1.426l.183.156v8.284a1.877 1.877 0 0 0 1.875 1.875h12.5a1.877 1.877 0 0 0 1.875-1.875v-8.75a1.876 1.876 0 0 0-1.875-1.875Zm.625 1.874V30H23.75v-1.875a.625.625 0 0 1 .625-.625h12.5a.626.626 0 0 1 .625.625Zm-8.125-4.375h2.5a.626.626 0 0 1 .625.625v1.875h-3.75v-1.875a.625.625 0 0 1 .625-.625Zm-3.72 1.68 1.845.577v.243h-3.125a1.875 1.875 0 0 0-1.613.92l-1.287-1.104a6.08 6.08 0 0 0 2.067-.952l.755-.54c.37.4.839.695 1.359.857Zm-9.161-2.468.233-1.399c.462.34.962.627 1.49.853l1.537.659a.626.626 0 0 0 .492 0l1.537-.659a7.481 7.481 0 0 0 1.49-.853l.232 1.399c.032.184.08.364.142.54l-.832.594a4.844 4.844 0 0 1-5.63 0l-.833-.594a3.16 3.16 0 0 0 .142-.54Zm-4.024-11.917a2.653 2.653 0 0 0-.145-.247l-.429-.642a1.402 1.402 0 0 1 0-1.561 2.66 2.66 0 0 0 .367-2.118l-.08-.32a1.405 1.405 0 0 1 .521-1.466l.879-.66c.244-.181.54-.28.844-.28h1.343c.412-.001.82-.097 1.188-.281l1.335-.667a2.952 2.952 0 0 1 3.109.28l.18.136c.461.344 1.02.53 1.595.531h1.985a1.404 1.404 0 0 1 1.17.627l.422.632c.195.292.445.543.737.737l.303.202a1.403 1.403 0 0 1 .572 1.557l-.79 2.767a1.41 1.41 0 0 1-.095.243l-.57 1.139-.115-.116-.578-1.735a.625.625 0 0 0-.593-.428 3.053 3.053 0 0 1-2.848-1.928l-.322-.804a.625.625 0 0 0-.927-.288l-.93.62a3.115 3.115 0 0 1-1.734.525h-.325c-.793 0-1.572.216-2.251.624l-1.045.627a4.378 4.378 0 0 0-1.9 2.368l-.14.419-.177.177-.06.063-.496-.733Zm1.873 3.758a.625.625 0 0 0-.247-.323 1.222 1.222 0 0 1-.186-1.881l.282-.282a.624.624 0 0 0 .15-.244l.187-.559a3.127 3.127 0 0 1 1.357-1.691l1.045-.627a3.126 3.126 0 0 1 1.608-.446h.325a4.36 4.36 0 0 0 2.427-.734l.29-.193.035.088a4.293 4.293 0 0 0 3.55 2.69l.49 1.472c.032.092.083.176.152.244l.281.282a1.223 1.223 0 0 1-.186 1.881.625.625 0 0 0-.246.323l-.899 2.696a6.255 6.255 0 0 1-3.467 3.768L20 21.819l-1.291-.553a6.254 6.254 0 0 1-3.468-3.768l-.898-2.696Zm1.282 13.75-3.011-2.582 1.73-.54c.52-.162.988-.458 1.359-.857l.755.54a6.08 6.08 0 0 0 2.067.953l-2.9 2.485Zm4.375.197a1.25 1.25 0 0 1-1.25-1.23l1.25-1.071 1.249 1.07A1.251 1.251 0 0 1 20 28.75Zm16.875 8.75h-12.5a.626.626 0 0 1-.625-.625V31.25H37.5v5.625a.625.625 0 0 1-.625.625Z"/></g></svg>
